X:1
%
T:Grano's March [2]
M:C|
L:1/8
R:Country Dance
B: Wright's Compleat Collection of celebrated country Dances (1740, p. 36)
Z:AK/Fiddler's Companion
K:D
A2|d4 e4|f2d2d2a2|f2d2d2 A2|d2A2F2D2|
d4e4|f2d2d2ag|fgfg (g3 f/g/)|a6:||
cd|e3f2|e2c2c2A2 dede e4|f6 ag|
f2a2e2a2|d2A2 dede|f2 gf e3d|c6||

